X: 9412
T: Daniel Of The Sun
R: jig
M: 6/8
K: Gmajor
|:BGG AGA|BAB GED|EAA ABA|EAA A2c|
BGG AGG|BAB GED|EGG GED|EGG G3:|
|:Bcd ABc|BAB GED|EAA ABA|EAA A2c|
Bcd ABc|BAB GED|EGG GED|EGG G3:|

